X: 1
T: Judy's Reel
T: the Maid Behind the Bar
T: Kiss the Maid Behind the Barrel
%T: Indy's Favorite
%T: the Green Mountain
N: Scottish version of Maid Behind the Bar, enough different to have both
Z: 1997 by John Chambers <jc:trillian.mit.edu>
M: C|
L: 1/8
K: D
DE \
|: "D"FAAB AFED | FAA[BF] ABde | "Bm"fBBA Bcde | f2ef "A7"edBA |
|  "D"FAAB AFED | FAA[BF] ABde | "Bm"fBBA "G"BcdB | "A7"AFEF "D"D2z2 :|
g \
|: "D"fgab afde | fdad bdfd | "Em"efga bgef | gebe "A7"gfeg |
|  "D"fgaf bfaf | defd efde | "Bm"fBBA "G"BcdB | "A7"AFEF "D"D2z2 :|
